X: 326
P: Longways for as many as will
M: 6/8
L: 1/8
K: C
V: 1
c |\
|: d/c/ |\
cGE AFD | GEG AFA | BAB GAB | c3- c2 :|
V: 2 clef=bass middle=d
c |\
g3- g2f | e2d c3 | zgf def | gfg c2c |\
g3- g2f | e3 f3 | e2c d3 | G2A B2 :|
|: c |\
g3 zzg | cBA e2"^#"g | a2c d2e | A2a/_b/ agf |\
e3 f3 | e3 f3 | g3 G3 | c2d e2 :|

